x:1
T:Circle of Life
N:celestial
Q:1/4=100
M:4/4
L:1/8
K:F

c5-c/2 c/2 d c-|c3 c/2 c/2 c F/2 F/2 F2 |z6 F F |C2 z6 |c5-c/2 c/2 d c-|c c/2 c/2 c _e2 d/2 c/2 c2 |B2 c B F F-F/2 D/2 C |z F/2 F/2 F2 z4 |z F/2 F/2 A C/2 C/2-C C z2 |z F/2 F/2 F F/2 F/2-F/2 F/2 F/2 F/2 F C |z F/2 F/2 F F/2 F/2-F/2 F/2 F/2 F/2 F C |z F/2 F/2 F F/2 F/2-F/2 F/2 F/2 F/2 F C |z F/2 F/2 F F/2 F/2-F/2 F/2 F/2 F/2 F C |z F/2 F/2 F F/2 F/2-F/2 F/2 F/2 F/2 F C |z F/2 F/2 F F/2 F/2-F/2 F/2 F/2 F/2 F C |z F/2 F/2 F F/2 F/2-F/2 F/2 F/2 F/2 F C |z F/2 F/2 F F/2 F/2-F/2 F/2 F/2 F/2 F C |z6 A, B, |C C C C2 C D C |B, B,3 z3 G, |B, B,2 B, B, D-D/2 C/2 A,-|A,2 z2 z2 z C |F2 F F3 D E |F G G G3 D F |G2 z G/2 A/2 B B/2 A/2-A F |G4 z3 A, |C2 C C2 C D C |C B,3 z2 G, A, |B,2 B, B, B, D2 C |A,4 z3 C/2 C/2 |F F F F3 z D/2 E/2 |F G G G2 G G G |G3 G/2 A/2 B A F A |G2 z C/2 C/2 c-c/2 A/2-A G |A6 z2 |z2 A A B2 c c |B8 |z2 B B c3 A |G F5 z2 |z3 C B3 A/2 G/2 |G8 |z2 c c c3 c |A4 A/2 G/2 F z2 |z2 A A B c2 d-|d/2 c/2 B7 |z4 z4/3d4/3d4/3 |c3 A-A/2 G/2 F/2 D/2 C2 |z3 C B2 A G |z F F6 |z8 |z8 |z2 C C c-c/2 A/2-A G |A6 z2 |z2 A A B2 c c-|c B5 z2 |z2 B B c3 A/2 G/2 |F6 z2 |z3 C2 B3 |z c A/2 G/2-G5-|G2 c c c2 _e2 |c3-c/2 B/2 _A4 |z2 c c _d2 _e2 |_e _d _d6-|_d2 z2 z4/3f4/3f4/3 |_e3 c-c/2 B/2 _A-_A-_A/2 F/2 |_E3 _E _d2 c B |z _A _A6-|_A8 |
